packages/ffe-icons/icons/open/500/sm/remote_gen.svg

<svg xmlns="http://www.w3.org/2000/svg" height="20" viewBox="0 -960 960 960" width="20"><path d="M312-37q-34.483 0-58.741-24.258Q229-85.519 229-120v-720q0-34.483 24.259-58.741Q277.517-923 312-923h336q34.483 0 58.741 24.259Q731-874.483 731-840v720q0 34.483-24.259 58.742Q682.483-37 648-37H312Zm0-83h336v-720H312v720Zm167.882-439Q529-559 563.5-593.177q34.5-34.176 34.5-82.999Q598-725 563.618-759.5q-34.383-34.5-83.5-34.5Q431-794 396.5-759.618q-34.5 34.383-34.5 83.5Q362-627 396.382-593q34.383 34 83.5 34Zm.118-72q-19 0-32.5-13.5T434-677.088q0-19.087 13.5-32Q461-722 480-722t32.5 12.912q13.5 12.913 13.5 32Q526-658 512.5-644.5T480-631Zm-72.211 226Q423-405 433.5-415.289q10.5-10.29 10.5-25.5Q444-456 433.711-466.5q-10.29-10.5-25.5-10.5Q393-477 382.5-466.711q-10.5 10.29-10.5 25.5Q372-426 382.289-415.5q10.29 10.5 25.5 10.5Zm144 0Q567-405 577.5-415.289q10.5-10.29 10.5-25.5Q588-456 577.711-466.5q-10.29-10.5-25.5-10.5Q537-477 526.5-466.711q-10.5 10.29-10.5 25.5Q516-426 526.289-415.5q10.29 10.5 25.5 10.5Zm-144 118Q423-287 433.5-297.289q10.5-10.29 10.5-25.5Q444-338 433.711-348.5q-10.29-10.5-25.5-10.5Q393-359 382.5-348.711q-10.5 10.29-10.5 25.5Q372-308 382.289-297.5q10.29 10.5 25.5 10.5Zm144 0Q567-287 577.5-297.289q10.5-10.29 10.5-25.5Q588-338 577.711-348.5q-10.29-10.5-25.5-10.5Q537-359 526.5-348.711q-10.5 10.29-10.5 25.5Q516-308 526.289-297.5q10.29 10.5 25.5 10.5Zm-144 119Q423-168 433.5-178.289q10.5-10.29 10.5-25.5Q444-219 433.711-229.5q-10.29-10.5-25.5-10.5Q393-240 382.5-229.711q-10.5 10.29-10.5 25.5Q372-189 382.289-178.5q10.29 10.5 25.5 10.5Zm144 0Q567-168 577.5-178.289q10.5-10.29 10.5-25.5Q588-219 577.711-229.5q-10.29-10.5-25.5-10.5Q537-240 526.5-229.711q-10.5 10.29-10.5 25.5Q516-189 526.289-178.5q10.29 10.5 25.5 10.5ZM312-120v-720 720Z"/></svg>

<svg xmlns="http://www.w3.org/2000/svg" height="20" viewBox="0 -960 960 960" width="20"><path d="M312-37q-34.48 0-58.74-24.26Q229-85.52 229-120v-720q0-34.48 24.26-58.74Q277.52-923 312-923h336q34.48 0 58.74 24.26Q731-874.48 731-840v720q0 34.48-24.26 58.74Q682.48-37 648-37H312Zm0-83h336v-720H312v720Zm167.88-439q49.12 0 83.62-34.18 34.5-34.17 34.5-83 0-48.82-34.38-83.32-34.38-34.5-83.5-34.5t-83.62 34.38q-34.5 34.38-34.5 83.5T396.38-593q34.38 34 83.5 34Zm.12-72q-19 0-32.5-13.5T434-677.09q0-19.09 13.5-32T480-722q19 0 32.5 12.91t13.5 32q0 19.09-13.5 32.59Q499-631 480-631Zm-72.21 226q15.21 0 25.71-10.29t10.5-25.5q0-15.21-10.29-25.71t-25.5-10.5q-15.21 0-25.71 10.29t-10.5 25.5q0 15.21 10.29 25.71t25.5 10.5Zm144 0q15.21 0 25.71-10.29t10.5-25.5q0-15.21-10.29-25.71t-25.5-10.5q-15.21 0-25.71 10.29t-10.5 25.5q0 15.21 10.29 25.71t25.5 10.5Zm-144 118q15.21 0 25.71-10.29t10.5-25.5q0-15.21-10.29-25.71t-25.5-10.5q-15.21 0-25.71 10.29t-10.5 25.5q0 15.21 10.29 25.71t25.5 10.5Zm144 0q15.21 0 25.71-10.29t10.5-25.5q0-15.21-10.29-25.71t-25.5-10.5q-15.21 0-25.71 10.29t-10.5 25.5q0 15.21 10.29 25.71t25.5 10.5Zm-144 119q15.21 0 25.71-10.29t10.5-25.5q0-15.21-10.29-25.71t-25.5-10.5q-15.21 0-25.71 10.29t-10.5 25.5q0 15.21 10.29 25.71t25.5 10.5Zm144 0q15.21 0 25.71-10.29t10.5-25.5q0-15.21-10.29-25.71t-25.5-10.5q-15.21 0-25.71 10.29t-10.5 25.5q0 15.21 10.29 25.71t25.5 10.5ZM312-120v-720 720Z"/></svg>
